hosted_logos/opencost.svg

<svg xmlns="http://www.w3.org/2000/svg" role="img" viewBox="-82.20 -82.20 4274.40 1009.40"><g clip-path="url(#clip0_29_27)"><path fill="#023927" d="M1548.22 488.523c-1.34 117.237-73.22 234.408-232.54 234.408-159.31 0-233.2-114.623-233.2-233.805 0-119.181 76.44-238.966 233.2-238.966 156.77 0 233.88 119.785 232.54 238.296m-381.53 1.944c1.95 74.471 42.11 154.171 148.99 154.171 106.88 0 147.05-80.303 148.32-154.775 1.34-76.415-41.44-161.88-148.32-161.88s-150.93 86.135-148.99 162.551M1605.08 846V393.339h73.82l5.16 44.039c24.61-35.593 67.39-51.145 103.66-51.145 98.5 0 163.88 73.131 163.88 167.042s-58.94 167.042-161.33 167.042c-33.66 0-83.54-10.39-106.21-45.313V846h-79.05.07zm267.53-292.725c0-49.871-33.66-90.693-90.72-90.693s-90.65 40.822-90.65 90.693c0 49.871 36.94 90.693 90.65 90.693 53.71 0 90.72-40.822 90.72-90.693zm204.71 27.818c5.16 39.481 39.49 67.969 95.21 67.969 29.17 0 67.39-10.993 85.49-29.761l50.56 49.871c-33.66 34.99-88.78 51.815-137.32 51.815-110.1 0-175.54-67.97-175.54-170.326 0-102.357 66.11-167.042 169.71-167.042 103.59 0 173.59 66.026 161.32 197.541h-249.36l-.07-.067zm173.6-65.423c-5.17-41.425-37.55-62.137-82.95-62.137-42.78 0-77.71 20.712-89.38 62.137h172.33zm371.73 196.938V545.566c0-48.597-26.55-85.464-77.11-85.464s-81.6 40.755-81.6 89.352v163.221h-78.39V392.668h70.61l5.16 43.37c32.39-31.706 64.77-47.928 104.94-47.928 75.16 0 135.38 56.374 135.38 156.719v167.712h-79.06l.07.067zm552.5-57.044c-46.67 45.984-106.88 67.367-172.32 67.367-168.43 0-239.71-115.897-240.31-233.738-.67-118.511 76.44-238.966 240.31-238.966 61.55 0 119.89 23.327 166.49 69.31l-56.99 55.033c-29.78-29.159-69.94-42.766-109.5-42.766-109.49 0-156.77 81.577-156.1 157.389.68 75.142 44.06 153.501 156.1 153.501 39.49 0 84.22-16.154 113.99-45.983l58.33 58.92v-.067zm352.96-102.289c0 91.967-62.83 166.439-166.49 166.439-103.66 0-165.82-74.472-165.82-166.439 0-91.966 63.5-166.438 165.15-166.438s167.16 75.142 167.16 166.438zm-253.25 0c0 48.598 29.16 93.911 86.76 93.911 57.6 0 86.83-45.313 86.83-93.911 0-48.597-33.66-94.581-86.83-94.581-56.99 0-86.76 46.654-86.76 94.581zm516.23-75.142c-22.67-21.383-48.62-28.488-79.06-28.488-37.61 0-58.33 11.663-58.33 31.706 0 20.042 18.77 32.376 59.61 34.99 60.21 3.888 136.65 17.495 136.65 102.356 0 56.307-46 104.904-137.32 104.904-50.56 0-101.05-8.446-147.72-56.976l38.89-56.373c22.66 25.27 74.5 44.039 110.1 44.709 29.77.671 57.66-14.881 57.66-38.207 0-21.987-18.17-31.103-63.49-33.65-60.22-4.558-132.16-26.544-132.16-99.072s76.44-99.742 134.77-99.742c49.89 0 87.44 9.719 124.38 42.095l-44.05 51.815.07-.067zm220.86-174.817v90.693h88.11v67.97h-88.78v137.95c0 30.432 16.9 45.313 41.44 45.313 12.34 0 26.55-3.888 38.22-9.72l22.06 67.367c-22.66 9.049-41.44 12.937-65.44 13.607-69.33 2.614-114.66-36.934-114.66-116.567v-137.95h-59.61v-67.97h59.61v-82.247l79.05-8.446z"/><path fill="#416A5D" d="M54.5127 579.082s93.4693-137.213 263.9813-95.184c170.512 42.028 169.171-123.807 340.956-150.552 171.786-26.679 234.68 59.792 234.68 59.792l10.796 111.472-47.339 121.193-88.843 63.88-39.828 32.376-23.267 71.389-72.214 4.96-36.543-5.832-6.639-57.244-36.543-22.858-74.024 12.87-28.095 34.856-18.238 38.208h-89.648l-14.952-66.428-55.787-24.265-97.023-55.435-40.7-32.376-42.3099 4.96-34.0621-5.831-4.3583-40.085v.134z" opacity=".4"/><path fill="#023927" d="M315.745 808.06h-30.374c-31.515 0-57.933-23.595-61.419-54.965l-4.024-36.398c-1.139-10.256 6.236-19.506 16.495-20.646 10.259-1.206 19.512 6.234 20.652 16.49l4.023 36.398c1.408 12.401 11.801 21.718 24.273 21.718h30.374c10.326 0 18.707 8.379 18.707 18.635 0 10.255-8.381 18.701-18.707 18.701m259.087.067h-26.486c-27.155 0-50.825-17.361-58.938-43.235l-8.784-27.952c-3.084-9.853 2.414-20.31 12.204-23.394 9.856-3.083 20.316 2.346 23.401 12.2l8.783 27.952c3.219 10.256 12.606 17.093 23.334 17.093h26.486c10.326 0 18.707 8.379 18.707 18.635 0 10.255-8.381 18.701-18.707 18.701z"/><path fill="#63E892" d="M521.861 60.5959c0 4.29 2.414 7.4405 7.107 9.4514v-17.227c-4.76.8714-7.107 3.4856-7.107 7.7756z"/><path fill="#023927" d="M532.321 0c-44.321 0-80.26 35.9287-80.26 80.2363 0 44.3077 35.939 80.2367 80.26 80.2367 44.321 0 80.261-35.929 80.261-80.2367C612.582 35.9287 576.642 0 532.321 0z"/><path fill="#7F9C93" d="M110.366 625.066S62.8941 353.589 408.142 330.933c345.247-22.657 223.75-193.385 364.29-107.652 140.54 85.733 94.274 151.088 94.274 151.088l12.003 164.361-87.435 131.179-78.585 51.413-6.973 72.193-67.521 1.475-50.691-11.128-19.914-62.54-59.273-5.764-50.356 20.109-31.581 59.188-46.735 19.372-71.946-15.216s4.157-54.429 4.157-59.523c0-5.095-53.842-23.595-53.842-23.595l-9.119-25.874-111.976-52.955-26.553-12.199v.201z" opacity=".3"/><path fill="#023927" d="M675.811 821.333h-74.494c-19.043 0-35.269-13.608-38.622-32.309l-6.772-37.672c-1.006-5.631-5.9-9.719-11.667-9.719h-72.348c-5.297 0-9.991 3.619-11.399 8.714l-11.399 41.961c-4.626 17.093-20.182 28.958-37.884 28.958h-68.929c-18.372 0-34.531-13.071-38.353-31.103l-10.594-49.67c-34.934-7.507-131.89-33.314-174.602-95.385-3.554-5.229-10.125-7.508-16.226-5.698l-19.8477 5.899c-11.0635 3.284-22.9986 1.676-32.8552-4.424-9.7895-6.033-16.6287-16.021-18.6403-27.416L.67043 442.003c-2.2127-12.467 1.34102-24.935 9.85657-34.32 8.5155-9.384 20.5848-14.277 33.2575-13.205l7.1745.537c6.9733.469 13.3432-3.821 15.2206-10.323 12.6728-44.107 47.2044-124.276 137.7234-180.314-12.471-8.111-29.234-13.339-50.087-15.551l-14.684-1.542-4.024-29.628 14.148-5.362 172.255-63.8809c12.874-4.8262 27.089-3.6196 39.024 3.2846 11.801 6.8371 19.847 18.5003 22.127 31.9743 5.901 35.325 17.3 59.657 30.576 65.355 51.696 14.948 194.918 40.755 250.772-14.68 16.025-15.886 41.773-18.299 61.218-5.765 54.714 35.527 181.642 137.28 178.893 315.65-.201 7.239-7.107 168.851-169.439 239.368l-21.255 69.981c-5.029 16.623-20.116 27.818-37.549 27.818M472.042 704.363h72.348c23.871 0 44.187 17.026 48.411 40.487l6.773 37.672c.134.871.938 1.541 1.877 1.541h74.494c.872 0 1.542-.536 1.81-1.34l26.419-86.94 8.314-3.351C859.8 633.243 866.639 489.461 866.84 483.362c2.414-159.333-112.378-251.3-161.862-283.408-4.76-3.083-10.862-2.681-14.483.938-83.345 82.65-280.141 26.21-288.455 23.729l-1.475-.469c-27.625-10.591-45.997-42.363-54.647-94.38-.536-3.284-2.749-5.027-4.023-5.764-1.274-.738-3.956-1.81-7.242-.604l-119.485 44.308c14.617 7.642 26.418 17.696 35.269 30.231 25.412 35.862 15.891 77.689 15.489 79.432-2.414 10.055-12.472 16.221-22.462 13.875-9.991-2.346-16.227-12.333-13.88-22.388.134-.536 3.621-17.294-2.347-34.923-82.54 49.603-113.719 121.661-125.051 161.076-6.7719 23.46-29.4353 39.213-54.0432 37.202l-7.1745-.536c-1.2069-.067-2.1456.536-2.682 1.072-.4694.536-1.0058 1.408-.8047 2.748l30.5755 171.6c.2011 1.14.9387 1.81 1.4751 2.145.5364.335 1.4751.67 2.615.335l19.8472-5.898c21.6576-6.435 44.7906 1.742 57.5976 20.31 42.577 61.937 161.325 81.979 162.532 82.18l12.606 2.078 15.757 74.204c.201.871.939 1.474 1.81 1.474h68.929c.872 0 1.609-.603 1.811-1.407l11.398-41.962c5.767-21.383 25.279-36.331 47.473-36.331"/><path fill="#023927" d="M238.502 382.279c0 19.975-16.16 36.129-36.141 36.129-19.981 0-36.141-16.154-36.141-36.129 0-19.976 16.16-36.13 36.141-36.13 19.981 0 36.141 16.154 36.141 36.13z"/></g><defs><clipPath id="clip0_29_27"><path fill="#fff" d="M0 0h4113v846H0z"/></clipPath></defs></svg>

<svg width="4113" height="846" viewBox="0 0 4113 846" fill="none" xmlns="http://www.w3.org/2000/svg">
<g clip-path="url(#clip0_29_27)">
<path d="M1548.22 488.523C1546.88 605.76 1475 722.931 1315.68 722.931C1156.37 722.931 1082.48 608.308 1082.48 489.126C1082.48 369.945 1158.92 250.16 1315.68 250.16C1472.45 250.16 1549.56 369.945 1548.22 488.456M1166.69 490.4C1168.64 564.871 1208.8 644.571 1315.68 644.571C1422.56 644.571 1462.73 564.268 1464 489.796C1465.34 413.381 1422.56 327.916 1315.68 327.916C1208.8 327.916 1164.75 414.051 1166.69 490.467" fill="#023927"/>
<path d="M1605.08 846V393.339H1678.9L1684.06 437.378C1708.67 401.785 1751.45 386.233 1787.72 386.233C1886.22 386.233 1951.6 459.364 1951.6 553.275C1951.6 647.186 1892.66 720.317 1790.27 720.317C1756.61 720.317 1706.73 709.927 1684.06 675.004V846H1605.01H1605.08ZM1872.61 553.275C1872.61 503.404 1838.95 462.582 1781.89 462.582C1724.83 462.582 1691.24 503.404 1691.24 553.275C1691.24 603.146 1728.18 643.968 1781.89 643.968C1835.6 643.968 1872.61 603.146 1872.61 553.275Z" fill="#023927"/>
<path d="M2077.32 581.093C2082.48 620.574 2116.81 649.062 2172.53 649.062C2201.7 649.062 2239.92 638.069 2258.02 619.301L2308.58 669.172C2274.92 704.162 2219.8 720.987 2171.26 720.987C2061.16 720.987 1995.72 653.017 1995.72 550.661C1995.72 448.304 2061.83 383.619 2165.43 383.619C2269.02 383.619 2339.02 449.645 2326.75 581.16H2077.39L2077.32 581.093ZM2250.92 515.67C2245.75 474.245 2213.37 453.533 2167.97 453.533C2125.19 453.533 2090.26 474.245 2078.59 515.67H2250.92Z" fill="#023927"/>
<path d="M2622.65 712.608V545.566C2622.65 496.969 2596.1 460.102 2545.54 460.102C2494.98 460.102 2463.94 500.857 2463.94 549.454V712.675H2385.55V392.668H2456.16L2461.32 436.038C2493.71 404.332 2526.09 388.11 2566.26 388.11C2641.42 388.11 2701.64 444.484 2701.64 544.829V712.541H2622.58L2622.65 712.608Z" fill="#023927"/>
<path d="M3175.15 655.564C3128.48 701.548 3068.27 722.931 3002.83 722.931C2834.4 722.931 2763.12 607.034 2762.52 489.193C2761.85 370.682 2838.96 250.227 3002.83 250.227C3064.38 250.227 3122.72 273.554 3169.32 319.537L3112.33 374.57C3082.55 345.411 3042.39 331.804 3002.83 331.804C2893.34 331.804 2846.06 413.381 2846.73 489.193C2847.41 564.335 2890.79 642.694 3002.83 642.694C3042.32 642.694 3087.05 626.54 3116.82 596.711L3175.15 655.631V655.564Z" fill="#023927"/>
<path d="M3528.11 553.275C3528.11 645.242 3465.28 719.714 3361.62 719.714C3257.96 719.714 3195.8 645.242 3195.8 553.275C3195.8 461.309 3259.3 386.837 3360.95 386.837C3462.6 386.837 3528.11 461.979 3528.11 553.275ZM3274.86 553.275C3274.86 601.873 3304.02 647.186 3361.62 647.186C3419.22 647.186 3448.45 601.873 3448.45 553.275C3448.45 504.678 3414.79 458.694 3361.62 458.694C3304.63 458.694 3274.86 505.348 3274.86 553.275Z" fill="#023927"/>
<path d="M3791.09 478.133C3768.42 456.75 3742.47 449.645 3712.03 449.645C3674.42 449.645 3653.7 461.308 3653.7 481.351C3653.7 501.393 3672.47 513.727 3713.31 516.341C3773.52 520.229 3849.96 533.836 3849.96 618.697C3849.96 675.004 3803.96 723.601 3712.64 723.601C3662.08 723.601 3611.59 715.155 3564.92 666.625L3603.81 610.252C3626.47 635.522 3678.31 654.291 3713.91 654.961C3743.68 655.632 3771.57 640.08 3771.57 616.754C3771.57 594.767 3753.4 585.651 3708.08 583.104C3647.86 578.546 3575.92 556.56 3575.92 484.032C3575.92 411.504 3652.36 384.29 3710.69 384.29C3760.58 384.29 3798.13 394.009 3835.07 426.385L3791.02 478.2L3791.09 478.133Z" fill="#023927"/>
<path d="M4011.95 303.316V394.009H4100.06V461.979H4011.28V599.929C4011.28 630.361 4028.18 645.242 4052.72 645.242C4065.06 645.242 4079.27 641.354 4090.94 635.522L4113 702.889C4090.34 711.938 4071.56 715.826 4047.56 716.496C3978.23 719.11 3932.9 679.562 3932.9 599.929V461.979H3873.29V394.009H3932.9V311.762L4011.95 303.316V303.316Z" fill="#023927"/>
<g opacity="0.4">
<path d="M54.5127 579.082C54.5127 579.082 147.982 441.869 318.494 483.898C489.006 525.926 487.665 360.091 659.45 333.346C831.236 306.667 894.13 393.138 894.13 393.138L904.926 504.61L857.587 625.803L768.744 689.683L728.916 722.059L705.649 793.448L633.435 798.408L596.892 792.576L590.253 735.332L553.71 712.474L479.686 725.344L451.591 760.2L433.353 798.408H343.705L328.753 731.98L272.966 707.715L175.943 652.28L135.243 619.904L92.9331 624.864L58.871 619.033L54.5127 578.948V579.082Z" fill="#416A5D"/>
</g>
<path d="M315.745 808.06H285.371C253.856 808.06 227.438 784.465 223.952 753.095L219.928 716.697C218.789 706.441 226.164 697.191 236.423 696.051C246.682 694.845 255.935 702.285 257.075 712.541L261.098 748.939C262.506 761.34 272.899 770.657 285.371 770.657H315.745C326.071 770.657 334.452 779.036 334.452 789.292C334.452 799.547 326.071 807.993 315.745 807.993" fill="#023927"/>
<path d="M574.832 808.06H548.346C521.191 808.06 497.521 790.699 489.408 764.825L480.624 736.873C477.54 727.02 483.038 716.563 492.828 713.479C502.684 710.396 513.144 715.825 516.229 725.679L525.012 753.631C528.231 763.887 537.618 770.724 548.346 770.724H574.832C585.158 770.724 593.539 779.103 593.539 789.359C593.539 799.614 585.158 808.06 574.832 808.06Z" fill="#023927"/>
<path d="M521.861 60.5959C521.861 64.8859 524.275 68.0364 528.968 70.0473V52.8203C524.208 53.6917 521.861 56.3059 521.861 60.5959Z" fill="#63E892"/>
<path d="M532.321 0C488 0 452.061 35.9287 452.061 80.2363C452.061 124.544 488 160.473 532.321 160.473C576.642 160.473 612.582 124.544 612.582 80.2363C612.582 35.9287 576.642 0 532.321 0Z" fill="#023927"/>
<g opacity="0.3">
<path d="M110.366 625.066C110.366 625.066 62.8941 353.589 408.142 330.933C753.389 308.276 631.892 137.548 772.432 223.281C912.972 309.014 866.706 374.369 866.706 374.369L878.709 538.73L791.274 669.909L712.689 721.322L705.716 793.515L638.195 794.99L587.504 783.862L567.59 721.322L508.317 715.558L457.961 735.667L426.38 794.855L379.645 814.227L307.699 799.011C307.699 799.011 311.856 744.582 311.856 739.488C311.856 734.393 258.014 715.893 258.014 715.893L248.895 690.019L136.919 637.064L110.366 624.865V625.066Z" fill="#7F9C93"/>
</g>
<path d="M675.811 821.333H601.317C582.274 821.333 566.048 807.725 562.695 789.024L555.923 751.352C554.917 745.721 550.023 741.633 544.256 741.633H471.908C466.611 741.633 461.917 745.252 460.509 750.347L449.11 792.308C444.484 809.401 428.928 821.266 411.226 821.266H342.297C323.925 821.266 307.766 808.195 303.944 790.163L293.35 740.493C258.416 732.986 161.46 707.179 118.748 645.108C115.194 639.879 108.623 637.6 102.522 639.41L82.6743 645.309C71.6108 648.593 59.6757 646.985 49.8191 640.885C40.0296 634.852 33.1904 624.864 31.1788 613.469L0.670425 442.003C-1.54227 429.536 2.01145 417.068 10.527 407.683C19.0425 398.299 31.1118 393.406 43.7845 394.478L50.959 395.015C57.9323 395.484 64.3022 391.194 66.1796 384.692C78.8524 340.585 113.384 260.416 203.903 204.378C191.432 196.267 174.669 191.039 153.816 188.827L139.132 187.285L135.108 157.657L149.256 152.295L321.511 88.4141C334.385 83.5879 348.6 84.7945 360.535 91.6987C372.336 98.5358 380.382 110.199 382.662 123.673C388.563 158.998 399.962 183.33 413.238 189.028C464.934 203.976 608.156 229.783 664.01 174.348C680.035 158.462 705.783 156.049 725.228 168.583C779.942 204.11 906.87 305.863 904.121 484.233C903.92 491.472 897.014 653.084 734.682 723.601L713.427 793.582C708.398 810.205 693.311 821.4 675.878 821.4M472.042 704.363H544.39C568.261 704.363 588.577 721.389 592.801 744.85L599.574 782.522C599.708 783.393 600.512 784.063 601.451 784.063H675.945C676.817 784.063 677.487 783.527 677.755 782.723L704.174 695.783L712.488 692.432C859.8 633.243 866.639 489.461 866.84 483.362C869.254 324.029 754.462 232.062 704.978 199.954C700.218 196.871 694.116 197.273 690.495 200.892C607.15 283.542 410.354 227.102 402.04 224.621L400.565 224.152C372.94 213.561 354.568 181.789 345.918 129.772C345.382 126.488 343.169 124.745 341.895 124.008C340.621 123.27 337.939 122.198 334.653 123.404L215.168 167.712C229.785 175.354 241.586 185.408 250.437 197.943C275.849 233.805 266.328 275.632 265.926 277.375C263.512 287.43 253.454 293.596 243.464 291.25C233.473 288.904 227.237 278.917 229.584 268.862C229.718 268.326 233.205 251.568 227.237 233.939C144.697 283.542 113.518 355.6 102.186 395.015C95.4141 418.475 72.7507 434.228 48.1428 432.217L40.9683 431.681C39.7614 431.614 38.8227 432.217 38.2863 432.753C37.8169 433.289 37.2805 434.161 37.4816 435.501L68.0571 607.101C68.2582 608.241 68.9958 608.911 69.5322 609.246C70.0686 609.581 71.0073 609.916 72.1472 609.581L91.9944 603.683C113.652 597.248 136.785 605.425 149.592 623.993C192.169 685.93 310.917 705.972 312.124 706.173L324.73 708.251L340.487 782.455C340.688 783.326 341.426 783.929 342.297 783.929H411.226C412.098 783.929 412.835 783.326 413.037 782.522L424.435 740.56C430.202 719.177 449.714 704.229 471.908 704.229" fill="#023927"/>
<path d="M238.502 382.279C238.502 402.254 222.342 418.408 202.361 418.408C182.38 418.408 166.22 402.254 166.22 382.279C166.22 362.303 182.38 346.149 202.361 346.149C222.342 346.149 238.502 362.303 238.502 382.279Z" fill="#023927"/>
</g>
<defs>
<clipPath id="clip0_29_27">
<rect width="4113" height="846" fill="white"/>
</clipPath>
</defs>
</svg>
